X:1
T:Title
%%score ( 1 2 ) { 3 | 4 }
L:1/8
Q:1/4=100
M:4/4
K:Db
V:1 treble nm="Grand Piano"
V:2 treble 
V:3 treble nm="Grand Piano"
V:4 bass 
V:1
 [FA]3 [GB] [FA]2 [Fd]2 | [Fd]3 [Ec] [Ec]4 | [EG]3 [DF] [EG]2 [GB]2 | [GB]3 [FA] [FA]4 | %4
w: John~H.~Burke * * *||||
 [FA]3 [GB] [FA]2 [Af]2 | [Ge]3 [Gd] B2 d2 | [Gc]4- [Gc][GA] B>[Gc] | [Fd]6 z2 | %8
w: ||||
 [Fd]4- [Fd][FA] [DF]>D | A6 z2 | [Ge]4- [Ge][Gc] [GB]>c | d-[Fd-] [Fd-]>[Fd-] [Fd]2 z2 | %12
w: ||||
 [FA]3 [GB] [FA]2 [Af]2 | [Ge]3 [Gd] B2 d2 | [Gc]4- [Gc][GA] [GB]>c | %15
w: |||
 d-[Fd-] [Gd-]>[Gd-] [Fd]2 z2 |] %16
w: |
V:2
 x8 | x8 | x8 | x8 | x8 | z4 G4 | x8 | x8 | x8 | CG G>G G2 z2 | x8 | .F2 z2 z4 | x8 | z4 G4 | x8 | %15
 .F2 z2 z4 |] %16
V:3
 D3 D D2 A,2 | A,3[K:bass] A, A,4 | A,3 A, A,2[K:treble] C2 | D3 D D4 | D3 D D2[K:bass] A,2 | %5
 B,3 B, D2 B,2 | E2 E2 EC D>E | D6 z2 | A,2 A,2 A,A, A,2 | CC C>C C2 z2 | C2 C2 CE C2 | %11
 A,A, A,>A, A,2 z2 | D3 D D2 A,2 | B,3 B, D2 B,2 | E2 E2 EC C>[K:bass]A, | A,A, B,>B, A,2 z2 |] %16
V:4
 D,3 D, D,2 D,2 | z8 | A,,3 A,, A,,2 A,,2 | D,3 D, D,4 | D,3 D, D,2 D,2 | G,3 G, G,4 | %6
 A,2 A,2 A,A, A,>A, | D,6 z2 | D,2 D,2 D,D, D,2 | A,A, A,>A, A,2 z2 | A,2 A,2 A,A, A,2 | %11
 D,D, D,>D, D,2 z2 | D,3 D, D,2 D,2 | G,3 G, G,4 | A,2 A,2 A,A, A,2 | D,6 z2 |] %16

